talent/images/icons/dollar.svg

<svg width="24" height="24" viewBox="0 0 24 24" fill="none" xmlns="http://www.w3.org/2000/svg">
<g id="dollar">
<path id="Shape" fill-rule="evenodd" clip-rule="evenodd" d="M12 0C15.2053 0 18.2188 1.24819 20.4853 3.51469C22.7518 5.78123 24 8.79469 24 12C24 15.2053 22.7518 18.2188 20.4853 20.4853C18.2188 22.7518 15.2053 24 12 24C8.79469 24 5.78114 22.7519 3.51469 20.4853C1.24823 18.2188 0 15.2053 0 12C0 8.79469 1.24819 5.78119 3.51469 3.51469C5.78119 1.24819 8.79469 0 12 0ZM15.375 14.625C15.375 12.764 13.861 11.25 12 11.25C10.9218 11.25 10.0533 10.3353 10.1297 9.24108C10.1942 8.31745 10.9424 7.56923 11.866 7.50469C12.9601 7.42819 13.875 8.29678 13.875 9.375C13.875 9.79655 14.2228 10.1369 14.647 10.1247C15.0559 10.113 15.3774 9.76303 15.375 9.35405C15.3656 7.82184 14.3296 6.52936 12.9219 6.12905C12.8206 6.10022 12.75 6.00881 12.75 5.90348V5.25C12.75 4.82377 12.3945 4.48059 11.9638 4.50084C11.5604 4.51983 11.25 4.86731 11.25 5.27119V5.90334C11.25 6.00895 11.179 6.10031 11.0774 6.12923C9.66361 6.53161 8.625 7.83389 8.625 9.375C8.625 11.236 10.139 12.75 12 12.75C13.0782 12.75 13.9467 13.6647 13.8703 14.7589C13.8058 15.6825 13.0576 16.4308 12.134 16.4953C11.0399 16.5718 10.125 15.7032 10.125 14.625C10.125 14.2035 9.77723 13.8631 9.35297 13.8753C8.94413 13.887 8.62256 14.237 8.62505 14.646C8.63442 16.1782 9.67036 17.4706 11.0781 17.871C11.1794 17.8998 11.25 17.9912 11.25 18.0965V18.75C11.25 19.1762 11.6055 19.5194 12.0362 19.4992C12.4396 19.4802 12.75 19.1327 12.75 18.7288V18.0967C12.75 17.991 12.821 17.8997 12.9226 17.8708C14.3364 17.4684 15.375 16.1661 15.375 14.625Z" fill="#AEBBCD"/>
</g>
</svg>

<svg width="24" height="24" fill="none" xmlns="http://www.w3.org/2000/svg"><path fill-rule="evenodd" clip-rule="evenodd" d="M12 0c3.205 0 6.219 1.248 8.485 3.515A11.922 11.922 0 0124 12c0 3.205-1.248 6.219-3.515 8.485A11.921 11.921 0 0112 24a11.921 11.921 0 01-8.485-3.515A11.922 11.922 0 010 12c0-3.205 1.248-6.219 3.515-8.485A11.921 11.921 0 0112 0zm3.375 14.625A3.379 3.379 0 0012 11.25a1.877 1.877 0 01-1.87-2.009 1.882 1.882 0 011.736-1.736 1.877 1.877 0 012.009 1.87.75.75 0 00.772.75.762.762 0 00.728-.77 3.38 3.38 0 00-2.453-3.226.235.235 0 01-.172-.226V5.25a.75.75 0 00-.786-.75.764.764 0 00-.714.771v.632a.235.235 0 01-.173.226 3.38 3.38 0 00-2.452 3.246A3.379 3.379 0 0012 12.75c1.078 0 1.947.915 1.87 2.009a1.882 1.882 0 01-1.736 1.736 1.877 1.877 0 01-2.009-1.87.75.75 0 00-.772-.75.762.762 0 00-.728.771 3.38 3.38 0 002.453 3.225c.101.029.172.12.172.226v.653c0 .426.355.77.786.75a.764.764 0 00.714-.771v-.632c0-.106.071-.197.173-.226a3.38 3.38 0 002.452-3.246z" fill="#AEBBCD"/></svg>
